X:13
T:Garrett Barry's
M:6/8
Z:Seattle.  Fine piping jig. 
R:jig
K:DMix
DEF ~G3|AGE c2A|dcA d2e|fed cAG|EFF GFG|AGA cde|dcA GEA|~D3 D2:|
A|dcA d2e|fed ege|dcA c2d|ege dcA|dcA d2e|~f3 ~e3|dcA GEA|~D3 D2:|
<end>
<start>
